svg/arrow_decision.svg

<svg xmlns="http://www.w3.org/2000/svg" viewBox="0 0 24 24"><path d="M11 5H8l4-4 4 4h-3v4.43c-.75.46-1.42 1.03-2 1.69zm11 6-4-4v3a6.747 6.747 0 0 0-7 6.17A3.006 3.006 0 0 0 9.17 20 3.006 3.006 0 0 0 13 21.83 3.01 3.01 0 0 0 14.83 18c-.3-.86-.98-1.53-1.83-1.83.47-4 4.47-4.2 4.95-4.2v3zm-11.37.59A7.63 7.63 0 0 0 6 10V7l-4 4 4 4v-3c1.34.03 2.63.5 3.64 1.4.25-.64.58-1.25.99-1.81"/></svg>

<?xml version="1.0" encoding="UTF-8"?><!DOCTYPE svg PUBLIC "-//W3C//DTD SVG 1.1//EN" "http://www.w3.org/Graphics/SVG/1.1/DTD/svg11.dtd"><svg xmlns="http://www.w3.org/2000/svg" xmlns:xlink="http://www.w3.org/1999/xlink" version="1.1" id="mdi-arrow-decision" width="24" height="24" viewBox="0 0 24 24"><path d="M11,5H8L12,1L16,5H13V9.43C12.25,9.89 11.58,10.46 11,11.12V5M22,11L18,7V10C14.39,9.85 11.31,12.57 11,16.17C9.44,16.72 8.62,18.44 9.17,20C9.72,21.56 11.44,22.38 13,21.83C14.56,21.27 15.38,19.56 14.83,18C14.53,17.14 13.85,16.47 13,16.17C13.47,12.17 17.47,11.97 17.95,11.97V14.97L22,11M10.63,11.59C9.3,10.57 7.67,10 6,10V7L2,11L6,15V12C7.34,12.03 8.63,12.5 9.64,13.4C9.89,12.76 10.22,12.15 10.63,11.59Z" /></svg>
